Gruvbox-Plus-Dark/actions/24/reconcile-finish.svg

<?xml version="1.0" encoding="UTF-8" standalone="no"?>
<svg
   width="24"
   height="24"
   version="1.1"
   viewBox="0 0 24 24"
   id="svg1"
   sodipodi:docname="reconcile-finish.svg"
   inkscape:version="1.3.2 (091e20ef0f, 2023-11-25, custom)"
   xmlns:inkscape="http://www.inkscape.org/namespaces/inkscape"
   xmlns:sodipodi="http://sodipodi.sourceforge.net/DTD/sodipodi-0.dtd"
   xmlns="http://www.w3.org/2000/svg"
   xmlns:svg="http://www.w3.org/2000/svg">
  <sodipodi:namedview
     id="namedview1"
     pagecolor="#ffffff"
     bordercolor="#666666"
     borderopacity="1.0"
     inkscape:showpageshadow="2"
     inkscape:pageopacity="0.0"
     inkscape:pagecheckerboard="0"
     inkscape:deskcolor="#d1d1d1"
     showgrid="true"
     inkscape:zoom="102.82207"
     inkscape:cx="8.0576085"
     inkscape:cy="6.1659913"
     inkscape:window-width="958"
     inkscape:window-height="625"
     inkscape:window-x="0"
     inkscape:window-y="455"
     inkscape:window-maximized="0"
     inkscape:current-layer="svg1">
    <inkscape:grid
       id="grid1"
       units="px"
       originx="0"
       originy="0"
       spacingx="1"
       spacingy="1"
       empcolor="#0099e5"
       empopacity="0.30196078"
       color="#0099e5"
       opacity="0.14902"
       empspacing="5"
       dotted="false"
       gridanglex="30"
       gridanglez="30"
       visible="true" />
  </sodipodi:namedview>
  <defs
     id="defs1">
    <style
       type="text/css"
       id="style1">.ColorScheme-Text { color:#ebdbb2; } .ColorScheme-Highlight { color:#458588; }</style>
  </defs>
  <path
     id="path1"
     class="ColorScheme-Text"
     d="m 7.4960938,5 v 1 h 3.5000002 v 11 l -4.167969,1 v 1 h 6.511719 l -1.828125,-1.828125 1.486328,-1.486328 V 6.0039062 h 3.492188 L 13.996094,12 c 0,1.380999 1.119001,2.5 2.5,2.5 1.380999,0 2.5,-1.119001 2.5,-2.5 L 16.492188,6 V 5.0039062 H 7.4980469 Z m 0,1 L 5,12 c 0,1.380999 1.1190014,2.5 2.5,2.5 1.3809987,0 2.5,-1.119001 2.5,-2.5 z m 0.00195,2 1.6679688,4 H 5.8339844 Z m 8.9960942,0 1.667969,4 h -3.332032 z m 2.087891,7.050781 -2.121094,2.121094 -1.41406,-1.414063 -1.414062,1.414063 L 16.460938,20 19.996094,16.464844 Z"
     style="color:#ebdbb2;fill:#ebdbb2;fill-opacity:1" />
</svg>

<svg width="24" height="24" version="1.1" viewBox="0 0 24 24" xmlns="http://www.w3.org/2000/svg">
  <defs>
    <style type="text/css">.ColorScheme-Text { color:#ebdbb2; } .ColorScheme-Highlight { color:#458588; }</style>
  </defs>
  <path class="ColorScheme-Text" d="m7.5 5v1h3.5v11l-4.168 1v1h6.512l-1.828-1.828 1.486-1.486v-9.682h3.492l-2.494 5.996c0 1.381 1.119 2.5 2.5 2.5s2.5-1.119 2.5-2.5l-2.504-6v-0.9961h-8.994l-0.00195-0.00391zm0 1-2.496 6c0 1.381 1.119 2.5 2.5 2.5s2.5-1.119 2.5-2.5zm0.00195 2 1.668 4h-3.332zm8.996 0 1.668 4h-3.332zm2.088 7.051-2.121 2.121-1.414-1.414-1.414 1.414 2.828 2.828 3.535-3.535z" fill="currentColor"/>
</svg>
